svg/regular/bx-message-edit.svg

<svg xmlns="http://www.w3.org/2000/svg" width="24" height="24"><path d="M20 2H4c-1.103 0-2 .897-2 2v12c0 1.103.897 2 2 2h3v3.767L13.277 18H20c1.103 0 2-.897 2-2V4c0-1.103-.897-2-2-2zm0 14h-7.277L9 18.233V16H4V4h16v12z"/><path d="m13.803 9.189-1.399-1.398-3.869 3.864v1.399h1.399zm.327-3.123 1.398 1.399-1.066 1.066-1.399-1.398z"/></svg>

<svg xmlns="http://www.w3.org/2000/svg" width="24" height="24" viewBox="0 0 24 24"><path d="M20,2H4C2.897,2,2,2.897,2,4v12c0,1.103,0.897,2,2,2h3v3.767L13.277,18H20c1.103,0,2-0.897,2-2V4C22,2.897,21.103,2,20,2z M20,16h-7.277L9,18.233V16H4V4h16V16z"/><path d="M13.803 9.189L12.404 7.791 8.535 11.655 8.535 13.054 9.934 13.054z"/><path transform="rotate(45.001 14.295 7.298)" d="M13.307 6.544H15.285V8.052H13.307z"/></svg>
